X: 6
T: The Monaghan
R: jig
M: 6/8
L: 1/8
K: Emin
|:BGE F2E|BGE FGA|BGE F2E|AFD FGA|
BGE F2E|BGE FGA|dcB ABG|FDF AGF:|
|:EGB efg|fed edB|EGB dBG|FDF AGF|
EGB efg|fed edB|dcB ABG|FDF AGF:|
|:g2e efe|geg bge|g2e eBe|fdf afd|
g2e efe|geg bge|d2B ABG|FDF AGF:|
|:EGB edB|dBG AFD|EGB dBG|FDF AGF|
EGB GBd|Beg egb|dcB ABG|FDF AGF:|


Tune 67	Setting 12520

